img/hero/icons/icon4.svg

<svg width="37" height="35" viewBox="0 0 37 35" fill="none" xmlns="http://www.w3.org/2000/svg">
<path fill-rule="evenodd" clip-rule="evenodd" d="M17.8118 0.351578C14.249 2.83486 9.53882 4.59269 4.95769 5.14884C3.91029 5.27601 3.89193 5.29687 3.80866 6.45764C3.73761 7.44738 3.79565 10.7972 3.89345 11.3534C3.99052 11.9052 4.44154 12.1191 4.79686 11.7818L4.96477 11.6223L4.92769 8.93749L4.89068 6.25265L5.06372 6.21675C5.15891 6.19699 5.49696 6.14614 5.81499 6.10366C9.77828 5.57468 14.2733 3.91897 17.6595 1.74074C18.0916 1.46273 18.4699 1.23529 18.5 1.23529C18.5301 1.23529 18.9084 1.46279 19.3405 1.74087C22.7174 3.91382 27.2294 5.57571 31.185 6.10366C31.503 6.14614 31.8404 6.19685 31.9347 6.21634L32.1061 6.25189L32.0675 8.77059C32.0206 11.8264 31.8827 13.1717 31.3553 15.7157C30.3404 20.6117 28.2884 24.7231 25.3936 27.6606C24.1742 28.8981 23.2346 29.6528 21.7887 30.556C20.9927 31.0534 18.716 32.1863 18.5125 32.1863C18.3438 32.1863 16.618 31.37 15.8119 30.9088C15.3623 30.6517 14.6041 30.1633 14.1271 29.8237C13.1508 29.1285 11.3362 27.452 10.5933 26.5588C8.00093 23.4421 6.22207 19.3232 5.42121 14.5833C5.33831 14.0926 5.25352 13.5921 5.23285 13.4711C5.18934 13.2167 4.90058 12.9706 4.64551 12.9706C4.42354 12.9706 4.11643 13.259 4.11643 13.4674C4.11643 13.7122 4.45614 15.623 4.65361 16.4886C5.04955 18.2248 5.60458 19.9356 6.30194 21.5696C6.54031 22.1282 6.72347 22.5941 6.70887 22.605C6.69427 22.6158 6.48719 22.7276 6.24867 22.8534C5.46277 23.268 4.35162 24.0189 3.83223 24.4863C3.20499 25.0509 3.18547 25.1758 3.61047 25.9069C3.76949 26.1803 3.89959 26.4232 3.89959 26.4465C3.89959 26.4697 3.11081 26.9871 2.14682 27.596C1.18276 28.205 0.304635 28.7824 0.195277 28.8792C-0.0273433 29.0762 -0.0619651 29.3314 0.103482 29.5556C0.162318 29.6354 0.910408 30.0662 1.76591 30.5129L3.32136 31.3251V33.0133C3.32136 34.6893 3.32258 34.7026 3.48861 34.8508C3.58062 34.9329 3.73718 35 3.83642 35C4.00642 35 9.96693 31.7176 10.2702 31.457C10.4845 31.2729 10.4292 30.9691 10.0423 30.2051C9.84412 29.8138 9.68193 29.4706 9.68193 29.4423C9.68193 29.3861 10.4964 29.0295 10.9299 28.896L11.2021 28.8121L11.9057 29.4444C13.5166 30.8919 15.7094 32.2307 17.9015 33.105C18.4586 33.3272 18.5404 33.3273 19.0985 33.1064C21.2348 32.2606 23.4994 30.8776 25.0943 29.4444L25.7979 28.8121L26.0701 28.896C26.5036 29.0295 27.3181 29.3861 27.3181 29.4423C27.3181 29.4706 27.1559 29.8138 26.9577 30.2051C26.5708 30.9691 26.5155 31.2729 26.7298 31.457C27.0488 31.7312 32.9942 35 33.1737 35C33.2795 35 33.4343 34.9293 33.5215 34.8412C33.674 34.687 33.6786 34.6327 33.6786 33.0037V31.3251L35.2341 30.5129C36.0896 30.0662 36.8377 29.6354 36.8965 29.5556C37.062 29.3314 37.0273 29.0762 36.8047 28.8792C36.6954 28.7824 35.8172 28.205 34.8532 27.596C33.8892 26.9871 33.1004 26.4686 33.1004 26.4439C33.1004 26.4192 33.2305 26.1739 33.3895 25.8988C33.796 25.1955 33.7815 25.0478 33.2583 24.5646C32.7244 24.0718 31.9516 23.5298 31.0777 23.0355C30.7006 22.8223 30.3627 22.6384 30.3268 22.6271C30.2908 22.6157 30.4742 22.0982 30.7344 21.4772C31.9739 18.5182 32.6897 15.5992 33.0641 11.9755C33.2073 10.5887 33.2781 7.42734 33.1899 6.3536C33.1042 5.30971 33.0694 5.2732 32.0423 5.1496C27.4901 4.60175 22.7448 2.83054 19.1882 0.351578C18.8937 0.146314 18.6073 0 18.5 0C18.3927 0 18.1063 0.146314 17.8118 0.351578ZM17.7666 4.21393C16.9286 4.79493 16.1018 5.25377 14.8499 5.83258C12.6412 6.85369 10.5751 7.45301 8.21683 7.75648C7.44713 7.85558 7.29852 7.95317 7.2193 8.41132C7.13503 8.89892 7.13936 11.4933 7.2261 12.5317C7.45118 15.2242 7.99284 17.6648 8.86105 19.8989C9.40958 21.3103 10.8411 23.8342 11.3467 24.2815C11.6896 24.5848 12.284 24.3621 12.284 23.9303C12.284 23.8536 12.0616 23.464 11.7898 23.0645C10.2271 20.7677 9.2617 18.2898 8.67262 15.0637C8.377 13.4447 8.16277 10.2235 8.28709 9.26745L8.34476 8.82419L9.13984 8.70073C12.1926 8.22672 15.5796 6.95333 17.9794 5.37737C18.2298 5.21294 18.4641 5.07843 18.5 5.07843C18.5359 5.07843 18.7702 5.21294 19.0206 5.37737C21.4204 6.95333 24.8085 8.22713 27.8602 8.70059L28.6552 8.82398L28.7115 9.33601C28.7424 9.61766 28.7488 10.3616 28.7256 10.9893C28.6839 12.1172 28.6854 12.1328 28.8541 12.319C29.1543 12.6504 29.7106 12.5069 29.8017 12.0745C29.8656 11.7713 29.8498 8.90215 29.7817 8.44722C29.7076 7.95145 29.5727 7.85812 28.7832 7.75648C26.4249 7.45301 24.3588 6.85369 22.1501 5.83258C20.9103 5.2594 20.0918 4.80619 19.2272 4.21414C18.896 3.98739 18.6107 3.84314 18.4933 3.84314C18.3751 3.84314 18.0956 3.98575 17.7666 4.21393ZM22.4031 11.9807C22.0749 12.1255 21.5701 12.5685 19.5102 14.5186L17.015 16.8811L16.0408 15.9536C14.9329 14.8985 14.6653 14.7396 13.9871 14.7336C12.5922 14.7211 11.6531 16.0777 12.2384 17.2598C12.4639 17.7151 15.7043 20.8468 16.1819 21.0709C16.6537 21.2924 17.2184 21.32 17.7052 21.1454C18.0689 21.015 18.3953 20.7245 21.5093 17.7587C25.2185 14.2263 25.111 14.352 25.1045 13.5539C25.0938 12.251 23.6698 11.4217 22.4031 11.9807ZM23.5163 12.929C24.0305 13.133 24.1467 13.6461 23.7837 14.1098C23.5349 14.4276 17.7489 19.9018 17.49 20.0643C17.3915 20.1262 17.1662 20.1765 16.9873 20.1765H16.6632L14.9523 18.5466C13.1478 16.8275 13.0981 16.7621 13.2363 16.2869C13.3605 15.8599 13.9852 15.6471 14.382 15.8967C14.4803 15.9585 15.0707 16.4886 15.694 17.0748C16.6744 17.9967 16.858 18.1405 17.0549 18.1405C17.258 18.1405 17.5732 17.8649 19.9693 15.593C21.447 14.1918 22.7536 12.9978 22.8729 12.9398C23.1402 12.8096 23.2122 12.8084 23.5163 12.929ZM28.6645 13.7157C28.578 13.8065 28.4816 14.1679 28.3659 14.8342C27.6434 18.9992 26.2538 22.0916 23.9763 24.6029C22.703 26.007 21.3104 27.0292 19.4599 27.9181L18.5045 28.377L17.5807 27.9408C16.1616 27.2706 15.0638 26.546 13.8949 25.508C13.3347 25.0105 13.2249 24.9573 12.9578 25.0536C12.7057 25.1447 12.5782 25.3119 12.5754 25.5555C12.5736 25.7104 12.6788 25.8516 13.0613 26.2075C14.2103 27.2767 15.5592 28.1745 17.1267 28.913C18.4907 29.5557 18.5022 29.5559 19.8129 28.942C23.122 27.3924 25.5621 25.0395 27.3057 21.7171C28.3363 19.7533 28.995 17.7282 29.4549 15.1099L29.6515 13.9902L29.5076 13.8064C29.3183 13.5648 28.8558 13.515 28.6645 13.7157ZM7.4764 23.9681C8.07748 25.0366 9.27247 26.7267 10.0263 27.5744C10.2041 27.7744 10.3376 27.9485 10.3229 27.9613C10.3083 27.9741 10.0524 28.0822 9.75421 28.2016C9.11353 28.458 8.00715 29.0514 7.42255 29.4521C7.19364 29.609 6.99473 29.7247 6.98049 29.7094C6.93431 29.6593 4.5501 25.3275 4.5501 25.2937C4.5501 25.1419 6.94883 23.6078 7.18613 23.6078C7.23434 23.6078 7.36495 23.77 7.4764 23.9681ZM30.0864 23.7205C30.7288 24.0331 32.4499 25.1787 32.4499 25.2936C32.4499 25.3275 30.0657 29.6593 30.0195 29.7094C30.0053 29.7247 29.8064 29.609 29.5774 29.4521C28.9929 29.0514 27.8865 28.458 27.2458 28.2016C26.9476 28.0822 26.693 27.9753 26.6799 27.964C26.6668 27.9526 26.8486 27.7168 27.0838 27.4399C28.0234 26.3336 28.8823 25.1158 29.4842 24.0368C29.6158 23.8009 29.753 23.6078 29.7892 23.6078C29.8254 23.6078 29.9591 23.6585 30.0864 23.7205ZM5.41716 29.1838C5.94148 30.1369 6.41368 30.9595 6.46659 31.0119C6.51957 31.0643 6.91139 31.1635 7.33741 31.2324C7.76342 31.3013 8.14267 31.3674 8.18026 31.3793C8.21777 31.3912 7.39198 31.88 6.34509 32.4656L4.44168 33.5303L4.40554 32.1315C4.37085 30.7899 4.36283 30.7277 4.20894 30.6095C4.12069 30.5417 3.52706 30.2171 2.8897 29.8883C2.25234 29.5594 1.7156 29.2669 1.69695 29.2382C1.66681 29.1919 4.29843 27.467 4.41668 27.4556C4.44262 27.453 4.89285 28.2308 5.41716 29.1838ZM33.966 28.3185C34.7201 28.7956 35.3218 29.2094 35.3031 29.2382C35.2844 29.2669 34.7477 29.5594 34.1103 29.8883C33.4729 30.2171 32.8793 30.5417 32.7911 30.6095C32.6372 30.7277 32.6292 30.7899 32.5945 32.1315L32.5583 33.5303L30.6549 32.4656C29.608 31.88 28.7822 31.3912 28.8197 31.3793C28.8573 31.3674 29.2366 31.3013 29.6626 31.2324C30.0886 31.1635 30.4804 31.0643 30.5334 31.0119C30.5863 30.9595 31.0585 30.1369 31.5828 29.1838C32.1072 28.2308 32.5494 27.451 32.5656 27.451C32.5818 27.451 33.212 27.8413 33.966 28.3185ZM8.80077 30.2163L8.88671 30.4081L8.61574 30.3654C8.13732 30.2899 8.12171 30.2716 8.38654 30.0971C8.65304 29.9214 8.67096 29.9266 8.80077 30.2163ZM28.778 30.2731C28.6949 30.3434 28.099 30.4105 28.1418 30.3449C28.1634 30.3116 28.214 30.2022 28.2543 30.1016L28.3275 29.9188L28.578 30.0746C28.7158 30.1603 28.8058 30.2496 28.778 30.2731Z" fill="url(#paint0_linear_1710_4074)"/>
<defs>
<linearGradient id="paint0_linear_1710_4074" x1="0" y1="0" x2="35.6353" y2="37.8562" gradientUnits="userSpaceOnUse">
<stop stop-color="#0ABD92"/>
<stop offset="1" stop-color="#009DB8"/>
</linearGradient>
</defs>
</svg>

<svg width="37" height="35" fill="none" xmlns="http://www.w3.org/2000/svg"><path fill-rule="evenodd" clip-rule="evenodd" d="M17.812.352c-3.563 2.483-8.273 4.24-12.854 4.797-1.048.127-1.066.148-1.15 1.309-.07.99-.012 4.34.085 4.895.098.552.549.766.904.429l.168-.16-.037-2.685-.037-2.684.173-.036c.095-.02.433-.07.751-.113 3.963-.53 8.458-2.185 11.845-4.363.432-.278.81-.506.84-.506.03 0 .408.228.84.506 3.377 2.173 7.89 3.835 11.845 4.363.318.042.655.093.75.112l.171.036-.038 2.519c-.047 3.055-.185 4.4-.713 6.945-1.015 4.896-3.067 9.007-5.961 11.945-1.22 1.237-2.16 1.992-3.605 2.895-.796.497-3.073 1.63-3.277 1.63-.168 0-1.894-.816-2.7-1.277a24.547 24.547 0 01-1.685-1.085c-.976-.696-2.79-2.372-3.534-3.265-2.592-3.117-4.37-7.236-5.172-11.976l-.188-1.112c-.044-.254-.332-.5-.587-.5-.222 0-.53.288-.53.496 0 .245.34 2.156.538 3.022a29.946 29.946 0 001.648 5.08c.238.56.421 1.025.407 1.036-.015.01-.222.123-.46.248-.786.415-1.897 1.166-2.417 1.633-.627.565-.647.69-.222 1.42.16.274.29.517.29.54 0 .024-.79.541-1.753 1.15-.964.609-1.842 1.186-1.952 1.283-.222.197-.257.452-.092.677.06.08.807.51 1.663.957l1.555.812v1.688c0 1.676.002 1.69.168 1.838a.622.622 0 00.347.149c.17 0 6.13-3.282 6.434-3.543.215-.184.16-.488-.228-1.252-.198-.391-.36-.734-.36-.763 0-.056.814-.413 1.248-.546l.272-.084.704.632c1.61 1.448 3.803 2.787 5.995 3.661.558.222.64.222 1.198.001 2.136-.845 4.4-2.228 5.995-3.662l.704-.632.272.084c.434.133 1.248.49 1.248.546 0 .029-.162.372-.36.763-.387.764-.442 1.068-.228 1.252.319.274 6.264 3.543 6.444 3.543a.57.57 0 00.348-.159c.152-.154.157-.208.157-1.837v-1.679l1.555-.812c.856-.447 1.604-.878 1.663-.957.165-.225.13-.48-.092-.677-.11-.097-.988-.674-1.952-1.283-.964-.609-1.753-1.127-1.753-1.152 0-.025.13-.27.29-.545.406-.704.392-.851-.132-1.334-.534-.493-1.306-1.035-2.18-1.53a14.93 14.93 0 00-.751-.408c-.036-.011.147-.529.407-1.15 1.24-2.959 1.956-5.878 2.33-9.502.143-1.386.214-4.548.126-5.621-.086-1.044-.12-1.08-1.148-1.204-4.552-.548-9.297-2.32-12.854-4.798C18.894.146 18.608 0 18.5 0c-.107 0-.394.146-.688.352zm-.045 3.862c-.838.58-1.665 1.04-2.917 1.619-2.209 1.02-4.275 1.62-6.633 1.923-.77.1-.918.197-.998.655-.084.488-.08 3.082.007 4.12.225 2.693.767 5.134 1.635 7.368.549 1.411 1.98 3.935 2.486 4.383.343.303.937.08.937-.352 0-.076-.222-.466-.494-.866-1.563-2.296-2.528-4.774-3.117-8-.296-1.62-.51-4.84-.386-5.797l.058-.443.795-.123c3.053-.474 6.44-1.748 8.84-3.324.25-.164.484-.299.52-.299.036 0 .27.135.52.3 2.4 1.575 5.788 2.85 8.84 3.323l.795.123.056.512c.031.282.038 1.026.015 1.653-.042 1.128-.04 1.144.128 1.33.3.331.857.188.948-.245.064-.303.048-3.172-.02-3.627-.074-.496-.21-.589-.999-.69-2.358-.304-4.424-.903-6.633-1.924-1.24-.574-2.058-1.027-2.923-1.619-.331-.227-.616-.37-.734-.37s-.397.142-.726.37zm4.636 7.767c-.328.145-.833.588-2.893 2.538l-2.495 2.362-.974-.927c-1.108-1.056-1.376-1.214-2.054-1.22-1.395-.013-2.334 1.344-1.749 2.526.226.455 3.466 3.587 3.944 3.81a2.03 2.03 0 001.523.075c.364-.13.69-.42 3.804-3.386 3.71-3.533 3.602-3.407 3.596-4.205-.011-1.303-1.435-2.132-2.702-1.573zm1.113.948c.515.204.63.717.268 1.18-.25.319-6.035 5.793-6.294 5.955-.098.062-.324.113-.503.113h-.324l-1.71-1.63c-1.805-1.72-1.855-1.785-1.717-2.26.124-.427.75-.64 1.146-.39.098.062.689.592 1.312 1.178.98.922 1.164 1.066 1.36 1.066.204 0 .52-.276 2.915-2.548 1.478-1.401 2.785-2.595 2.904-2.653.267-.13.34-.132.643-.011zm5.149.787c-.087.09-.183.452-.3 1.118-.722 4.165-2.111 7.258-4.389 9.769-1.273 1.404-2.666 2.426-4.516 3.315l-.956.459-.923-.436a14.7 14.7 0 01-3.686-2.433c-.56-.497-.67-.55-.937-.454-.252.09-.38.258-.383.502-.001.154.104.296.486.651 1.15 1.07 2.498 1.967 4.066 2.706 1.364.643 1.375.643 2.686.029 3.309-1.55 5.75-3.902 7.493-7.225 1.03-1.964 1.689-3.989 2.149-6.607l.197-1.12-.144-.184c-.19-.241-.652-.291-.843-.09zM7.476 23.968c.601 1.069 1.796 2.759 2.55 3.606.178.2.312.374.297.387-.015.013-.27.121-.569.24-.64.257-1.747.85-2.331 1.251-.23.157-.428.273-.443.257-.046-.05-2.43-4.381-2.43-4.415 0-.152 2.399-1.686 2.636-1.686.048 0 .179.162.29.36zm22.61-.247c.643.312 2.364 1.458 2.364 1.573 0 .034-2.384 4.365-2.43 4.415-.015.016-.214-.1-.443-.257-.584-.4-1.69-.994-2.331-1.25-.298-.12-.553-.227-.566-.238-.013-.011.169-.247.404-.524.94-1.106 1.798-2.324 2.4-3.403.132-.236.269-.43.305-.43.036 0 .17.052.297.114zM5.417 29.184c.524.953.997 1.775 1.05 1.828.053.052.444.151.87.22.426.07.806.135.843.147.038.012-.788.501-1.835 1.087L4.442 33.53l-.036-1.398c-.035-1.342-.043-1.404-.197-1.522-.088-.068-.682-.393-1.32-.722-.637-.329-1.173-.621-1.192-.65-.03-.046 2.601-1.771 2.72-1.782.026-.003.476.775 1 1.728zm28.549-.866c.754.478 1.356.891 1.337.92-.019.029-.555.321-1.193.65-.637.33-1.23.654-1.319.721-.154.119-.162.18-.197 1.523l-.036 1.398-1.903-1.064c-1.047-.586-1.873-1.075-1.835-1.087.037-.012.417-.078.843-.147.426-.069.817-.168.87-.22.053-.053.525-.875 1.05-1.828.524-.953.966-1.733.983-1.733.016 0 .646.39 1.4.867zM8.801 30.216l.086.192-.271-.043c-.479-.075-.494-.093-.23-.268.267-.176.285-.17.415.12zm19.977.057c-.083.07-.679.137-.636.072.021-.033.072-.143.112-.243l.073-.183.251.156c.138.085.228.175.2.198z" fill="url(#paint0_linear_1710_4074)"/><defs><linearGradient id="paint0_linear_1710_4074" x1="0" y1="0" x2="35.635" y2="37.856" gradientUnits="userSpaceOnUse"><stop stop-color="#0ABD92"/><stop offset="1" stop-color="#009DB8"/></linearGradient></defs></svg>
